!!!COM: Fux, Johann Joseph
!!!OMD: Gradus ad Parnassum Exercise
!!!YEC: CC0 1.0 Universal (Public Domain). Mark Gotham and FourScoreAndMore.org waive all rights to this document.
**kern	**kern	**kern	**kern
*part4	*part3	*part2	*part1
*staff4	*staff3	*staff2	*staff1
*I"4	*I"3	*I"2	*I"1
*I'Pno	*I'Pno	*I'Pno	*I'Pno
!!LO:LB:g=z
*clefF4	*clefGv2	*clefG2	*clefG2
*k[]	*k[]	*k[]	*k[]
!!LO:TX:omd:t=
*M4/4	*M4/4	*M4/4	*M4/4
=189	=189	=189	=189
!	!	!	!LO:TX:a:t=Fig. 181; Species&colon; 3; Modal final&colon; d; Cantus firmus&colon; 2
1D	4D/	1d	1a
.	4E/	.	.
.	4F/	.	.
.	4G/	.	.
=190	=190	=190	=190
1D	4A/	1f	1dd
.	4F/	.	.
.	4A/	.	.
.	4B\	.	.
=191	=191	=191	=191
1C	4c\	1e	1g
.	4e\	.	.
.	4d\	.	.
.	4c\	.	.
=192	=192	=192	=192
1G	4B\	1d	1b
.	4G/	.	.
.	4B\	.	.
.	4d\	.	.
=193	=193	=193	=193
1E	4e\	1g	1b
.	4E/	.	.
.	4F/	.	.
.	4G/	.	.
=194	=194	=194	=194
1D	4A/	1f	1dd
.	4d\	.	.
.	4c\	.	.
.	4B-X\	.	.
!!LO:LB:g=z
=195	=195	=195	=195
1F	4A/	1a	1cc
.	4F/	.	.
.	4A/	.	.
.	4B\	.	.
=196	=196	=196	=196
1C	4c\	1g	1ee
.	4G/	.	.
.	4c\	.	.
.	4B-X\	.	.
=197	=197	=197	=197
1D	4A/	1f	1dd
.	4D/	.	.
.	4F/	.	.
.	4G/	.	.
=198	=198	=198	=198
1AA	1A	1e	1cc#X
=199	=199	=199	=199
1D	1A	1d	1dd
==	==	==	==
*-	*-	*-	*-
!!!software: music21 v.9.7.1
!!!software: music21 v.9.7.1
!!!software: MuseScore 3.4.2
!!!RDF**kern: > = above
!!!RDF**kern: < = below
